findly-builder/apps/searchassist/src/assets/icons/sidemenu/new-icons/traits-active.svg

<svg width="14" height="13" viewBox="0 0 14 13" fill="none" xmlns="http://www.w3.org/2000/svg">
<path d="M2.59023 0C1.20852 0 0.0780346 1.125 0.0780346 2.5C0.0780346 3.875 1.20852 5 2.59023 5C3.97194 5 5.10243 3.875 5.10243 2.5C5.10243 1.125 3.97194 0 2.59023 0ZM7.61462 0C7.33592 0 7.11218 0.222656 7.11218 0.5V4.5C7.11218 4.77734 7.33592 5 7.61462 5H11.6341C11.9128 5 12.1366 4.77734 12.1366 4.5V0.5C12.1366 0.222656 11.9128 0 11.6341 0H7.61462ZM2.59023 1C3.43025 1 4.09755 1.66406 4.09755 2.5C4.09755 3.33594 3.43025 4 2.59023 4C1.75021 4 1.08291 3.33594 1.08291 2.5C1.08291 1.66406 1.75021 1 2.59023 1ZM8.11706 1H11.1317V4H8.11706V1ZM3.10052 7C2.92388 6.99609 2.75902 7.08594 2.66874 7.23438L0.156541 11.2344C0.0584083 11.3867 0.0505572 11.582 0.140839 11.7422C0.231122 11.9023 0.395984 12 0.580474 12H5.60486C5.78935 12 5.95422 11.9023 6.0445 11.7422C6.13478 11.582 6.12693 11.3867 6.0288 11.2344L3.5166 7.23438C3.42632 7.08984 3.26931 7 3.10052 7ZM8.57239 7C8.35258 7 8.16024 7.14063 8.09351 7.35156L7.13573 10.4414C7.07293 10.6406 7.14358 10.8594 7.30845 10.9883L9.82457 12.8945C10.0012 13.0312 10.2524 13.0312 10.4291 12.8945L12.9413 10.9883C13.11 10.8594 13.1807 10.6406 13.1218 10.4414L12.1601 7.35156C12.0934 7.14063 11.9011 7 11.6812 7H8.57239ZM8.9453 8H11.3083L12.0581 10.4062L10.1268 11.875L8.19557 10.4062L8.9453 8ZM3.09267 8.44141L4.69812 11H1.48722L3.09267 8.44141Z" fill="#0D6EFD"/>
</svg>

<svg width="14" height="13" fill="none" xmlns="http://www.w3.org/2000/svg"><path d="M2.59 0A2.513 2.513 0 0 0 .078 2.5C.078 3.875 1.208 5 2.59 5a2.513 2.513 0 0 0 2.512-2.5c0-1.375-1.13-2.5-2.512-2.5Zm5.025 0a.5.5 0 0 0-.503.5v4a.5.5 0 0 0 .503.5h4.02a.5.5 0 0 0 .502-.5v-4a.5.5 0 0 0-.503-.5h-4.02ZM2.59 1c.84 0 1.508.664 1.508 1.5S3.43 4 2.59 4s-1.507-.664-1.507-1.5S1.75 1 2.59 1Zm5.527 0h3.015v3H8.117V1ZM3.101 7a.492.492 0 0 0-.432.234l-2.512 4a.492.492 0 0 0-.016.508.5.5 0 0 0 .44.258h5.024a.5.5 0 0 0 .44-.258.492.492 0 0 0-.016-.508l-2.512-4A.493.493 0 0 0 3.1 7Zm5.471 0a.5.5 0 0 0-.478.352l-.958 3.09a.504.504 0 0 0 .172.546l2.517 1.907a.497.497 0 0 0 .604 0l2.512-1.907a.509.509 0 0 0 .18-.547l-.96-3.09A.5.5 0 0 0 11.68 7H8.572Zm.373 1h2.363l.75 2.406-1.931 1.469-1.931-1.469L8.946 8Zm-5.852.441L4.698 11h-3.21l1.605-2.559Z" fill="#0D6EFD"/></svg>
